icons/square-16.svg

<svg width="16" height="16" viewBox="0 0 16 16" fill="none" xmlns="http://www.w3.org/2000/svg">
<path fill-rule="evenodd" clip-rule="evenodd" d="M3.5 5.25C3.5 4.2835 4.2835 3.5 5.25 3.5H10.75C11.7165 3.5 12.5 4.2835 12.5 5.25V10.75C12.5 11.7165 11.7165 12.5 10.75 12.5H5.25C4.2835 12.5 3.5 11.7165 3.5 10.75V5.25ZM5.25 5C5.11193 5 5 5.11193 5 5.25V10.75C5 10.8881 5.11193 11 5.25 11H10.75C10.8881 11 11 10.8881 11 10.75V5.25C11 5.11193 10.8881 5 10.75 5H5.25Z" fill="black"/>
</svg>

<svg xmlns="http://www.w3.org/2000/svg" width="16" height="16" viewBox="0 0 16 16"><path fill-rule="evenodd" d="M3.5 5.25c0-.966.784-1.75 1.75-1.75h5.5c.966 0 1.75.784 1.75 1.75v5.5a1.75 1.75 0 01-1.75 1.75h-5.5a1.75 1.75 0 01-1.75-1.75v-5.5zM5.25 5a.25.25 0 00-.25.25v5.5c0 .138.112.25.25.25h5.5a.25.25 0 00.25-.25v-5.5a.25.25 0 00-.25-.25h-5.5z"/></svg>
